packages/crayons-icon/icons/print.svg

<?xml version="1.0" encoding="UTF-8"?>
<svg width="16px" height="16px" viewBox="0 0 16 16" version="1.1" xmlns="http://www.w3.org/2000/svg" xmlns:xlink="http://www.w3.org/1999/xlink">
    <!-- Generator: Sketch 52.6 (67491) - http://www.bohemiancoding.com/sketch -->
    <title>icon/print</title>
    <desc>Created with Sketch.</desc>
    <g id="Icons-✅" stroke="none" stroke-width="1" fill="none" fill-rule="evenodd">
        <g id="Icons" transform="translate(-490.000000, -1332.000000)" fill="currentColor">
            <g id="icon/print" transform="translate(490.000000, 1332.000000)">
                <g id="print">
                    <path d="M14.3,3 C14.750868,3 15.1832697,3.17910663 15.5020815,3.49791847 C15.8208934,3.81673032 16,4.24913197 16,4.7 L16,11.3 C16,12.2388841 15.2388841,13 14.3,13 L13.5,13 L13.5,15.3 C13.5,15.6865993 13.1865993,16 12.8,16 L3.2,16 C2.81340068,16 2.5,15.6865993 2.5,15.3 L2.5,13 L1.7,13 C0.761115925,13 1.14980138e-16,12.2388841 0,11.3 L0,4.7 C1.14980138e-16,3.76111593 0.761115925,3 1.7,3 L2.5,3 L2.5,0.7 C2.5,0.313400675 2.81340068,1.28318119e-13 3.2,1.28413962e-13 L11.8,1.28413962e-13 C11.9858463,-0.00328054472 12.1642057,0.0731591775 12.29,0.21 L13.29,1.21 C13.4268408,1.33579432 13.5032805,1.51415367 13.5,1.7 L13.5,3 L14.3,3 Z M3.9,1.4 L3.9,3 L12.1,3 L12.1,2 L11.51,1.4 L3.9,1.4 Z M12.1,14.6 L12.1,9.4 L3.9,9.4 L3.9,14.6 L12.1,14.6 Z M14.6,11.3 L14.6,4.7 C14.6,4.53431458 14.4656854,4.4 14.3,4.4 L1.7,4.4 C1.53431458,4.4 1.4,4.53431458 1.4,4.7 L1.4,11.3 C1.4,11.4656854 1.53431458,11.6 1.7,11.6 L2.5,11.6 L2.5,8.7 C2.5,8.31340068 2.81340068,8 3.2,8 L12.8,8 C13.1865993,8 13.5,8.31340068 13.5,8.7 L13.5,11.6 L14.3,11.6 C14.4656854,11.6 14.6,11.4656854 14.6,11.3 Z M3.35,5 C3.91276897,4.99909776 4.37814584,5.43813255 4.41,6 C4.43036693,6.42773141 4.1889492,6.82497644 3.79990282,7.0038951 C3.41085644,7.18281375 2.95213849,7.10755431 2.64065686,6.81370372 C2.32917524,6.51985314 2.2273446,6.06629315 2.38331626,5.66749268 C2.53928792,5.26869222 2.92180828,5.00456287 3.35,5 Z M9.8,11.3 C10.1865993,11.3 10.5,11.6134007 10.5,12 C10.5,12.3865993 10.1865993,12.7 9.8,12.7 L6.2,12.7 C5.81340068,12.7 5.5,12.3865993 5.5,12 C5.5,11.6134007 5.81340068,11.3 6.2,11.3 L9.8,11.3 Z" id="Combined-Shape"></path>
                </g>
            </g>
        </g>
    </g>
</svg>

<svg viewBox="0 0 16 16"><path d="M14.3 3A1.7 1.7 0 0 1 16 4.7v6.6a1.7 1.7 0 0 1-1.7 1.7h-.8v2.3a.7.7 0 0 1-.7.7H3.2a.7.7 0 0 1-.7-.7V13h-.8A1.7 1.7 0 0 1 0 11.3V4.7A1.7 1.7 0 0 1 1.7 3h.8V.7a.7.7 0 0 1 .7-.7h8.6a.65.65 0 0 1 .49.21l1 1a.65.65 0 0 1 .21.49V3h.8zM3.9 1.4V3h8.2V2l-.59-.6H3.9zm8.2 13.2V9.4H3.9v5.2h8.2zm2.5-3.3V4.7a.3.3 0 0 0-.3-.3H1.7a.3.3 0 0 0-.3.3v6.6a.3.3 0 0 0 .3.3h.8V8.7a.7.7 0 0 1 .7-.7h9.6a.7.7 0 0 1 .7.7v2.9h.8a.3.3 0 0 0 .3-.3zM3.35 5a1.06 1.06 0 0 1 1.06 1 1.05 1.05 0 1 1-1.06-1zm6.45 6.3a.7.7 0 0 1 0 1.4H6.2a.7.7 0 0 1 0-1.4h3.6z" fill="currentColor" fill-rule="evenodd"/></svg>
